X:114
T:Ballydesmond Polka
T:Tom Billy's
M:2/4
L:1/8
R:polka
D:Nicolas Buckmelter: Mountain Eire
N:Sometimes played in Edor
K:Ador
AB|:c2B2|A2 G>A|Bd ed|g2ed|ea g/a/g/e/|dB GA/B/|ce dB|1 A2 AB:|2 A2 Ac/d/|
|:ea ac/d/|eg gd|ea ab|g2 ed|ea g/a/g/e/|dB GA/B/|ce dB|1 A2 Ac/d/:|2 A2 AB|
